img/info-uno.svg

<?xml version="1.0" encoding="UTF-8" standalone="no"?>
<svg width="27px" height="26px" viewBox="0 0 27 26" version="1.1" xmlns="http://www.w3.org/2000/svg" xmlns:xlink="http://www.w3.org/1999/xlink" xmlns:sketch="http://www.bohemiancoding.com/sketch/ns">
    <!-- Generator: Sketch 3.5.1 (25234) - http://www.bohemiancoding.com/sketch -->
    <title>info-uno</title>
    <desc>Created with Sketch.</desc>
    <defs></defs>
    <g id="Page-1" stroke="none" stroke-width="1" fill="none" fill-rule="evenodd" sketch:type="MSPage">
        <g id="info-uno" sketch:type="MSLayerGroup" fill="#2B3E50">
            <path d="M6.5,10.5 C6.57956495,10.6060866 6.69801386,10.6762211 6.82928932,10.6949747 C6.96056479,10.7137284 7.0939134,10.6795649 7.2,10.6 L8.82,9.16 C8.87990283,9.16482924 8.94009717,9.16482924 9,9.16 C9.6627417,9.16 10.2,8.6227417 10.2,7.96 C10.1972525,7.60602427 10.035737,7.2719808 9.76,7.05 L9.5,3.4 C9.46871329,3.15351285 9.24734308,2.97641668 9,3 C8.87802283,2.96843729 8.74830383,2.99619005 8.64991859,3.07489824 C8.55153335,3.15360643 8.49598259,3.27406948 8.5,3.4 L8.32,7.03 C7.98457589,7.25133569 7.78485702,7.62816375 7.79,8.03 C7.78743715,8.07329544 7.78743715,8.11670456 7.79,8.16 L6.44,9.8 C6.26507792,10.0104389 6.29181733,10.3223986 6.5,10.5 L6.5,10.5 Z" id="Shape" sketch:type="MSShapeGroup"></path>
            <path d="M26.6,23 L18.3,9.27 C17.3,7.57 15.6,7.57 14.6,9.27 L6.44,23 C5.44,24.7 6.24,26 8.24,26 L24.74,26 C26.8,26 27.6,24.6 26.6,23 L26.6,23 Z M15.44,13.1 C15.7278478,12.7968443 16.1223253,12.6175364 16.54,12.6 C16.9625305,12.5959618 17.3652142,12.7789999 17.64,13.1 C17.916792,13.3973704 18.0611282,13.794295 18.04,14.2 C18.04,14.6 17.44,17.5 17.24,19.6 L15.74,19.6 C15.54,17.5 14.94,14.6 14.94,14.2 C14.9575364,13.7823253 15.1368443,13.3878478 15.44,13.1 L15.44,13.1 Z M17.64,23.1 C17.0040069,23.6343514 16.0759931,23.6343514 15.44,23.1 C15.1189999,22.8252142 14.9359618,22.4225305 14.94,22 C14.9575364,21.5823253 15.1368443,21.1878478 15.44,20.9 C16.0759931,20.3656486 17.0040069,20.3656486 17.64,20.9 C17.9431557,21.1878478 18.1224636,21.5823253 18.14,22 C18.1341808,22.4291205 17.9359422,22.8329399 17.6,23.1 L17.64,23.1 Z" id="Shape" sketch:type="MSShapeGroup"></path>
            <path d="M9.5,16 L10.9,13.7 C10.2840812,13.8895239 9.64434901,13.9905342 9,14 C5.75399406,13.9887078 3.10556374,11.3979478 3.02282222,8.15297692 C2.94008069,4.90800606 5.45303485,2.18563906 8.69424714,2.00893326 C11.9354594,1.83222745 14.7294782,4.26526662 15,7.5 C15.4386224,7.18683262 15.9612016,7.01263954 16.5,7 L16.9,7 C16.363314,2.74056213 12.5602667,-0.335905539 8.282691,0.02904471 C4.00511527,0.393994959 0.778189639,4.07023935 0.970813636,8.35903159 C1.16343763,12.6478238 4.70693077,16.0199861 9,16 L9.5,16 L9.5,16 Z" id="Shape" sketch:type="MSShapeGroup"></path>
        </g>
    </g>
</svg>

<svg width="27" height="26" viewBox="0 0 27 26" xmlns="http://www.w3.org/2000/svg"><title>info-uno</title><g fill="#2B3E50" fill-rule="evenodd"><path d="M6.5 10.5a.5.5 0 0 0 .7.1l1.62-1.44c.06.005.12.005.18 0a1.2 1.2 0 0 0 1.2-1.2 1.18 1.18 0 0 0-.44-.91L9.5 3.4A.46.46 0 0 0 9 3a.4.4 0 0 0-.5.4l-.18 3.63a1.18 1.18 0 0 0-.53 1 1.1 1.1 0 0 0 0 .13L6.44 9.8a.5.5 0 0 0 .06.7zM26.6 23L18.3 9.27c-1-1.7-2.7-1.7-3.7 0L6.44 23c-1 1.7-.2 3 1.8 3h16.5c2.06 0 2.86-1.4 1.86-3zm-11.16-9.9a1.61 1.61 0 0 1 1.1-.5 1.43 1.43 0 0 1 1.1.5 1.5 1.5 0 0 1 .4 1.1c0 .4-.6 3.3-.8 5.4h-1.5c-.2-2.1-.8-5-.8-5.4a1.61 1.61 0 0 1 .5-1.1zm2.2 10a1.71 1.71 0 0 1-2.2 0 1.43 1.43 0 0 1-.5-1.1 1.61 1.61 0 0 1 .5-1.1 1.71 1.71 0 0 1 2.2 0c.303.288.482.682.5 1.1a1.43 1.43 0 0 1-.54 1.1h.04z"/><path d="M9.5 16l1.4-2.3A6.8 6.8 0 0 1 9 14a6 6 0 1 1 6-6.5 2.69 2.69 0 0 1 1.5-.5h.4A8 8 0 1 0 9 16h.5z"/></g></svg>
